X:47
T:Lord Mayo
M:C|
L:1/8
K:Gmaj
E2|"Am"A2G2 A2B2|e3 g ed (3Bcd|e2A2 A2BA|"G"GAGF "C"E2E2|
"Am"A2G2 A2B2|"C"e3f "G"g3f|"Em"e2eg ed (3BAG|1)"D"A4A2E2:|2)"D"A4A2e2
"Am"a2a2 gega|"Em"b2(b2b)ag2|"C"e2"G"d2 deg2|"Em"G3A G2E2|
"Am"a2a2 gega|"Em"b2(b2b)ag2|"C"e2"G"d2 deg2|"Am"a3b a2e2|
"Am"a2a2 gega|"Em"b2(b2b)ag2|"C"e2"G"d2 deg2|"Em"G3A G2E2|
"Am"AGA"C"B "D"d2"C"B2|"Am"A2G2"Em7"g3e|"C"d3G "Em"(3Bcd BG|"Am"A2 (3AAA A2 E2|]

